X:1
T:Polska Leffler nr 13 
R:Polska
Z: Göran Hed 2010-03-22
O:Österfärnebo, Gästrikland
S:efter Lyckner
M:3/4
L:1/16
K:Dm
D3 d d2>d2 d2d2|E3 e e2>e2 e2e2|f4 agfe gfed|d2f2 ed^cB AGFE|
D3 d d2>d2 d2d2|E3 e e2>e2 e2e2|f4 agfe gfed|^cdec d4 a4:|
|:a2c2 c2a2 bagf | g2B2 B2g2 agfe|f2d2 d2f2 e2d2| ^c2Ac e2ce a4|
a2c2 c2a2 bagf | g2B2 B2g2 agfe|f4 agfe gfed|^cdec d4 D4:|

